!!!COM: Robert Franz
!!!CNT: Deutscher
!!!TXO: Deutsche 
!!!OTL: Meerfahrt
!!!OPS: Op. 18
!!!ONM: No. 4
!!!ONB: Original key: Original key
!!!LYR: H. Heine
!!!ENC: Brian Bice
!!!YOR: Vocal Album, G. Schirmer, Inc., 1907
!!!ODT: 1860/
!!NB: Vocal melody and text only encoded.
**kern	**silbe
*clefG2	*
*k[f#c#g#d#a#e#]	*
*M2/4	*
=0	=0
4.r	.
{8cc#	{Mein
=1	=1
8a#	Lieb-
16a#	-chen,
16a#	wir
8dd#	sa-
16cc#	-ssen
16b#	bei-
=2	=2
8cc#	-sam-
8g#}	-men}
4r	.
=3	=3
{8g#	{trau-
16g#	-lich
16g#	im
(8cc#	leich-
16bn)	|
16a#	-ten
=4	=4
4b}	Kahn.}
8r	.
{8b	{Die
=5	=5
8a#	Nacht
16g#	war
16f#	so
8cc#	still
16e#	und
16f#	wir
=6	=6
8g#	schwam-
8f#}	-men}
8r	.
{8f#	{auf
=7	=7
8.en	wei-
16g#	-ter
8cc#	Was-
8b	-ser-
=8	=8
4a#}	bahn.}
4r	.
=9	=9
4r	.
8r	.
{8f#	{Die
=10	=10
8.e#	Gei-
16g#	-ster-
8b	-in-
16a#	-sel,
16g#	die
=11	=11
4cc#	scho2-
8a#}	-ne,}
8r	.
=12	=12
8.r	.
{16f#	{lag
8b	da2mm'-
16a#	-rig
16a#	im
=13	=13
8.g#	Mon-
16f#	-den-
4g#	-glanz,
=14	=14
8cc#	dort
16a#	klan-
16g#	-gen
8f#	lie-
8g#	-be
=15	=15
4a#	To2-
8d#}	-ne,}
8r	.
=16	=16
8.r	.
{16d#	{und
8g#	wog-
16f#	-te-
16f#	-der
=17	=17
8.e#	Ne-
16f#	-bel-
[4c#	-tanz.
=18	=18
4c#]}	|}
4r	.
=21	=21
{8a#	{Dort
16a#	klang
16a#	es
(8dd#	lieb
16cc#)	|
16b#	und
=22	=22
4cc#	lie-
8g#}	-ber,}
{8g#	{und
=23	=23
8g#	wogt'
8g#	es
(8cc#	hin
16bn)	|
16a#	und
=24	=24
4.b}	her;}
8r	.
=25	=25
{8an	{wir
16g#	a-
16f#	-ber
16cc#	schwam-
16cc#	-men
8e	vor-
=26	=26
8g#	-u2-
8f#}	-ber}
4r	.
=27	=27
8r	.
{4c#	trost-
8c#}	-los}
=28	=28
4r	.
8r	.
{8c#	{auf
=29	=29
4an	wei-
4f#	-tem
=30	=30
4.g#}	Meer.}
*-	*-
